static/img/site/iceberg-1.svg

<svg width="354" height="217" viewBox="0 0 354 217" fill="none" xmlns="http://www.w3.org/2000/svg">
<path d="M0 24C0 10.7452 10.7452 0 24 0H330C343.255 0 354 10.7452 354 24V193C354 206.255 343.255 217 330 217H24C10.7452 217 0 206.255 0 193V24Z" fill="#F3F3F3"/>
<g filter="url(#filter0_d_1118_3019)">
<rect x="29.5" y="27" width="117.59" height="128.345" rx="12" fill="white"/>
<rect x="29.9284" y="27.4284" width="116.733" height="127.489" rx="11.5716" stroke="white" stroke-width="0.856801"/>
</g>
<g filter="url(#filter1_d_1118_3019)">
<rect x="209" y="30" width="117" height="125" rx="12" fill="white"/>
<rect x="209.428" y="30.4284" width="116.143" height="124.143" rx="11.5716" stroke="white" stroke-width="0.856801"/>
</g>
<rect x="38.1016" y="65.002" width="100.382" height="20.0764" rx="2.86806" fill="#F7F7F7"/>
<rect x="217.359" y="68.1719" width="100.382" height="20.0764" rx="2.86806" fill="#F7F7F7"/>
<rect x="38.1016" y="87.9453" width="100.382" height="20.0764" rx="2.86806" fill="#F7F7F7"/>
<rect x="217.359" y="96.248" width="100.382" height="20.0764" rx="2.86806" fill="#F7F7F7"/>
<rect x="38" y="116" width="101" height="25" rx="5.73611" fill="#E5F6FF"/>
<rect x="41" y="119" width="95" height="19" rx="2.86806" fill="white"/>
<rect x="217.359" y="124.324" width="100.382" height="20.0764" rx="2.86806" fill="#E5F6FF"/>
<rect x="38.1016" y="169" width="100.382" height="20.0764" rx="2.86806" fill="#E5F6FF"/>
<path d="M70.8843 51.6103C70.2113 51.6103 69.6377 51.488 69.1635 51.2432C68.6969 50.9985 68.2954 50.6696 67.9589 50.2566L68.8537 49.4191C69.1367 49.7633 69.4465 50.0233 69.783 50.1992C70.1271 50.3751 70.5172 50.4631 70.9531 50.4631C71.4656 50.4631 71.8518 50.3484 72.1118 50.1189C72.3719 49.8895 72.5019 49.5797 72.5019 49.1897C72.5019 48.8761 72.4101 48.6275 72.2266 48.444C72.043 48.2604 71.718 48.1228 71.2514 48.031L70.5401 47.9048C69.76 47.7595 69.1749 47.5033 68.7849 47.1362C68.3948 46.769 68.1998 46.2643 68.1998 45.6218C68.1998 45.27 68.2648 44.9526 68.3948 44.6696C68.5325 44.379 68.7199 44.1381 68.957 43.9469C69.2017 43.748 69.4962 43.5951 69.8403 43.488C70.1845 43.3809 70.5707 43.3274 70.999 43.3274C71.6032 43.3274 72.1271 43.4345 72.5707 43.6486C73.0143 43.8551 73.3929 44.1572 73.7065 44.5549L72.8002 45.358C72.5937 45.0903 72.3413 44.8761 72.043 44.7155C71.7447 44.5549 71.3738 44.4746 70.9302 44.4746C70.4713 44.4746 70.1157 44.5664 69.8633 44.7499C69.6109 44.9335 69.4847 45.2012 69.4847 45.553C69.4847 45.8895 69.5879 46.1419 69.7944 46.3102C70.0009 46.4708 70.3222 46.5931 70.7581 46.6773L71.4694 46.8264C72.2724 46.9794 72.8575 47.2394 73.2246 47.6065C73.5994 47.9736 73.7868 48.4784 73.7868 49.1209C73.7868 49.4956 73.7218 49.836 73.5918 50.1419C73.4617 50.4478 73.2705 50.7117 73.0181 50.9335C72.7734 51.1476 72.4713 51.3159 72.1118 51.4382C71.7524 51.553 71.3432 51.6103 70.8843 51.6103ZM77.5572 51.6103C77.1289 51.6103 76.7465 51.5377 76.41 51.3924C76.0735 51.247 75.7905 51.0405 75.561 50.7729C75.3316 50.4975 75.1557 50.1686 75.0333 49.7862C74.9109 49.3962 74.8498 48.9641 74.8498 48.4899C74.8498 48.0157 74.9109 47.5874 75.0333 47.205C75.1557 46.8149 75.3316 46.4861 75.561 46.2184C75.7905 45.943 76.0735 45.7327 76.41 45.5874C76.7465 45.4421 77.1289 45.3694 77.5572 45.3694C78.1538 45.3694 78.6432 45.5033 79.0256 45.771C79.408 46.0386 79.6872 46.3943 79.8631 46.8379L78.8306 47.3197C78.7465 47.0444 78.5973 46.8264 78.3832 46.6658C78.1767 46.4975 77.9014 46.4134 77.5572 46.4134C77.0983 46.4134 76.7503 46.5587 76.5132 46.8494C76.2838 47.1323 76.1691 47.5033 76.1691 47.9622V49.0291C76.1691 49.488 76.2838 49.8627 76.5132 50.1534C76.7503 50.4363 77.0983 50.5778 77.5572 50.5778C77.9243 50.5778 78.2149 50.4899 78.4291 50.314C78.6509 50.1304 78.8268 49.8895 78.9568 49.5912L79.909 50.096C79.7101 50.5855 79.4119 50.9602 79.0142 51.2203C78.6165 51.4803 78.1308 51.6103 77.5572 51.6103ZM81.0994 42.9832H82.3499V46.4937H82.4073C82.5373 46.1725 82.7323 45.9048 82.9923 45.6907C83.26 45.4765 83.6233 45.3694 84.0822 45.3694C84.6941 45.3694 85.1682 45.5721 85.5048 45.9775C85.8489 46.3752 86.021 46.945 86.021 47.6868V51.4727H84.7705V47.836C84.7705 46.9105 84.3958 46.4478 83.6463 46.4478C83.4856 46.4478 83.325 46.4708 83.1644 46.5167C83.0115 46.5549 82.8738 46.6161 82.7514 46.7002C82.6291 46.7843 82.5296 46.8914 82.4531 47.0214C82.3843 47.1515 82.3499 47.3006 82.3499 47.4689V51.4727H81.0994V42.9832ZM90.0945 51.6103C89.6662 51.6103 89.2838 51.5377 88.9473 51.3924C88.6108 51.247 88.324 51.0405 88.0869 50.7729C87.8498 50.4975 87.6663 50.1686 87.5362 49.7862C87.4139 49.3962 87.3527 48.9641 87.3527 48.4899C87.3527 48.0157 87.4139 47.5874 87.5362 47.205C87.6663 46.8149 87.8498 46.4861 88.0869 46.2184C88.324 45.943 88.6108 45.7327 88.9473 45.5874C89.2838 45.4421 89.6662 45.3694 90.0945 45.3694C90.5305 45.3694 90.9129 45.4459 91.2418 45.5989C91.5783 45.7518 91.8574 45.966 92.0792 46.2413C92.301 46.509 92.4655 46.8226 92.5725 47.182C92.6873 47.5415 92.7446 47.9277 92.7446 48.3407V48.8111H88.649V49.0061C88.649 49.465 88.7829 49.8436 89.0506 50.1419C89.3259 50.4325 89.716 50.5778 90.2207 50.5778C90.5878 50.5778 90.8976 50.4975 91.15 50.3369C91.4024 50.1763 91.6165 49.9583 91.7924 49.683L92.5267 50.4057C92.3049 50.7729 91.9836 51.0673 91.563 51.2891C91.1423 51.5032 90.6529 51.6103 90.0945 51.6103ZM90.0945 46.3446C89.8804 46.3446 89.6815 46.3828 89.498 46.4593C89.3221 46.5358 89.1691 46.6429 89.0391 46.7805C88.9167 46.9182 88.8211 47.0826 88.7523 47.2738C88.6835 47.465 88.649 47.6754 88.649 47.9048V47.9851H91.4253V47.8704C91.4253 47.4115 91.3068 47.0444 91.0697 46.769C90.8326 46.4861 90.5075 46.3446 90.0945 46.3446ZM94.1289 51.4727V45.5071H95.3794V46.4937H95.4367C95.4979 46.3407 95.5706 46.1954 95.6547 46.0578C95.7465 45.9201 95.8536 45.8016 95.9759 45.7021C96.106 45.5951 96.2551 45.5147 96.4234 45.4612C96.5993 45.4 96.8019 45.3694 97.0314 45.3694C97.4367 45.3694 97.7962 45.4689 98.1098 45.6677C98.4233 45.8666 98.6528 46.1725 98.7981 46.5855H98.8325C98.9396 46.249 99.1461 45.9622 99.452 45.7251C99.7579 45.488 100.152 45.3694 100.634 45.3694C101.23 45.3694 101.693 45.5721 102.022 45.9775C102.351 46.3752 102.515 46.945 102.515 47.6868V51.4727H101.265V47.836C101.265 47.3771 101.177 47.0329 101.001 46.8035C100.825 46.5664 100.546 46.4478 100.163 46.4478C100.003 46.4478 99.8497 46.4708 99.7044 46.5167C99.5591 46.5549 99.4291 46.6161 99.3144 46.7002C99.2073 46.7843 99.1193 46.8914 99.0505 47.0214C98.9817 47.1515 98.9472 47.3006 98.9472 47.4689V51.4727H97.6968V47.836C97.6968 46.9105 97.3335 46.4478 96.6069 46.4478C96.4539 46.4478 96.301 46.4708 96.148 46.5167C96.0027 46.5549 95.8727 46.6161 95.758 46.7002C95.6432 46.7843 95.5515 46.8914 95.4826 47.0214C95.4138 47.1515 95.3794 47.3006 95.3794 47.4689V51.4727H94.1289ZM108.616 51.4727C108.288 51.4727 108.035 51.3809 107.859 51.1973C107.683 51.0061 107.576 50.7652 107.538 50.4746H107.481C107.366 50.8493 107.156 51.1323 106.85 51.3235C106.544 51.5147 106.173 51.6103 105.737 51.6103C105.117 51.6103 104.639 51.4497 104.303 51.1285C103.974 50.8073 103.81 50.3751 103.81 49.8321C103.81 49.2356 104.024 48.7882 104.452 48.4899C104.888 48.1916 105.523 48.0425 106.356 48.0425H107.435V47.5377C107.435 47.1706 107.335 46.8876 107.137 46.6887C106.938 46.4899 106.628 46.3905 106.207 46.3905C105.855 46.3905 105.569 46.4669 105.347 46.6199C105.125 46.7729 104.938 46.9679 104.785 47.205L104.039 46.5281C104.238 46.1916 104.517 45.9163 104.876 45.7021C105.236 45.4803 105.706 45.3694 106.288 45.3694C107.06 45.3694 107.653 45.5492 108.066 45.9086C108.479 46.2681 108.685 46.7843 108.685 47.4574V50.4516H109.316V51.4727H108.616ZM106.093 50.6581C106.483 50.6581 106.804 50.574 107.056 50.4057C107.309 50.2298 107.435 49.9966 107.435 49.7059V48.8455H106.379C105.515 48.8455 105.083 49.1132 105.083 49.6486V49.8551C105.083 50.1228 105.171 50.3254 105.347 50.4631C105.53 50.5931 105.779 50.6581 106.093 50.6581Z" fill="black"/>
<path d="M250.142 54.7802C249.469 54.7802 248.895 54.6579 248.421 54.4131C247.955 54.1684 247.553 53.8395 247.217 53.4265L248.112 52.5891C248.395 52.9332 248.704 53.1933 249.041 53.3692C249.385 53.5451 249.775 53.633 250.211 53.633C250.723 53.633 251.11 53.5183 251.37 53.2889C251.63 53.0594 251.76 52.7497 251.76 52.3596C251.76 52.046 251.668 51.7975 251.484 51.6139C251.301 51.4304 250.976 51.2927 250.509 51.2009L249.798 51.0747C249.018 50.9294 248.433 50.6732 248.043 50.3061C247.653 49.939 247.458 49.4342 247.458 48.7917C247.458 48.4399 247.523 48.1225 247.653 47.8395C247.79 47.5489 247.978 47.308 248.215 47.1168C248.46 46.9179 248.754 46.765 249.098 46.6579C249.442 46.5508 249.829 46.4973 250.257 46.4973C250.861 46.4973 251.385 46.6044 251.829 46.8185C252.272 47.025 252.651 47.3271 252.964 47.7248L252.058 48.5279C251.851 48.2602 251.599 48.046 251.301 47.8854C251.003 47.7248 250.632 47.6445 250.188 47.6445C249.729 47.6445 249.373 47.7363 249.121 47.9199C248.869 48.1034 248.743 48.3711 248.743 48.7229C248.743 49.0594 248.846 49.3118 249.052 49.4801C249.259 49.6407 249.58 49.7631 250.016 49.8472L250.727 49.9963C251.53 50.1493 252.115 50.4093 252.482 50.7764C252.857 51.1436 253.045 51.6483 253.045 52.2908C253.045 52.6655 252.98 53.0059 252.85 53.3118C252.72 53.6177 252.528 53.8816 252.276 54.1034C252.031 54.3175 251.729 54.4858 251.37 54.6082C251.01 54.7229 250.601 54.7802 250.142 54.7802ZM256.815 54.7802C256.387 54.7802 256.004 54.7076 255.668 54.5623C255.331 54.417 255.048 54.2105 254.819 53.9428C254.589 53.6674 254.413 53.3386 254.291 52.9562C254.169 52.5661 254.108 52.134 254.108 51.6598C254.108 51.1856 254.169 50.7573 254.291 50.3749C254.413 49.9849 254.589 49.656 254.819 49.3883C255.048 49.113 255.331 48.9026 255.668 48.7573C256.004 48.612 256.387 48.5394 256.815 48.5394C257.412 48.5394 257.901 48.6732 258.283 48.9409C258.666 49.2086 258.945 49.5642 259.121 50.0078L258.088 50.4896C258.004 50.2143 257.855 49.9963 257.641 49.8357C257.435 49.6675 257.159 49.5833 256.815 49.5833C256.356 49.5833 256.008 49.7286 255.771 50.0193C255.542 50.3023 255.427 50.6732 255.427 51.1321V52.199C255.427 52.6579 255.542 53.0326 255.771 53.3233C256.008 53.6063 256.356 53.7477 256.815 53.7477C257.182 53.7477 257.473 53.6598 257.687 53.4839C257.909 53.3003 258.085 53.0594 258.215 52.7611L259.167 53.2659C258.968 53.7554 258.67 54.1302 258.272 54.3902C257.874 54.6502 257.389 54.7802 256.815 54.7802ZM260.357 46.1531H261.608V49.6636H261.665C261.795 49.3424 261.99 49.0747 262.25 48.8606C262.518 48.6464 262.881 48.5394 263.34 48.5394C263.952 48.5394 264.426 48.742 264.763 49.1474C265.107 49.5451 265.279 50.1149 265.279 50.8567V54.6426H264.028V51.0059C264.028 50.0805 263.654 49.6177 262.904 49.6177C262.743 49.6177 262.583 49.6407 262.422 49.6866C262.269 49.7248 262.132 49.786 262.009 49.8701C261.887 49.9543 261.787 50.0613 261.711 50.1914C261.642 50.3214 261.608 50.4705 261.608 50.6388V54.6426H260.357V46.1531ZM269.352 54.7802C268.924 54.7802 268.542 54.7076 268.205 54.5623C267.869 54.417 267.582 54.2105 267.345 53.9428C267.108 53.6674 266.924 53.3386 266.794 52.9562C266.672 52.5661 266.61 52.134 266.61 51.6598C266.61 51.1856 266.672 50.7573 266.794 50.3749C266.924 49.9849 267.108 49.656 267.345 49.3883C267.582 49.113 267.869 48.9026 268.205 48.7573C268.542 48.612 268.924 48.5394 269.352 48.5394C269.788 48.5394 270.171 48.6158 270.5 48.7688C270.836 48.9218 271.115 49.1359 271.337 49.4112C271.559 49.6789 271.723 49.9925 271.83 50.352C271.945 50.7114 272.002 51.0977 272.002 51.5107V51.981H267.907V52.1761C267.907 52.6349 268.041 53.0135 268.308 53.3118C268.584 53.6024 268.974 53.7477 269.479 53.7477C269.846 53.7477 270.155 53.6674 270.408 53.5068C270.66 53.3462 270.874 53.1282 271.05 52.8529L271.784 53.5757C271.563 53.9428 271.241 54.2372 270.821 54.459C270.4 54.6732 269.911 54.7802 269.352 54.7802ZM269.352 49.5145C269.138 49.5145 268.939 49.5527 268.756 49.6292C268.58 49.7057 268.427 49.8128 268.297 49.9504C268.175 50.0881 268.079 50.2525 268.01 50.4437C267.941 50.6349 267.907 50.8453 267.907 51.0747V51.155H270.683V51.0403C270.683 50.5814 270.565 50.2143 270.327 49.939C270.09 49.656 269.765 49.5145 269.352 49.5145ZM273.387 54.6426V48.677H274.637V49.6636H274.695C274.756 49.5107 274.828 49.3654 274.913 49.2277C275.004 49.09 275.111 48.9715 275.234 48.8721C275.364 48.765 275.513 48.6847 275.681 48.6311C275.857 48.5699 276.06 48.5394 276.289 48.5394C276.695 48.5394 277.054 48.6388 277.368 48.8376C277.681 49.0365 277.911 49.3424 278.056 49.7554H278.09C278.197 49.4189 278.404 49.1321 278.71 48.895C279.016 48.6579 279.41 48.5394 279.891 48.5394C280.488 48.5394 280.951 48.742 281.28 49.1474C281.608 49.5451 281.773 50.1149 281.773 50.8567V54.6426H280.522V51.0059C280.522 50.547 280.434 50.2028 280.259 49.9734C280.083 49.7363 279.804 49.6177 279.421 49.6177C279.261 49.6177 279.108 49.6407 278.962 49.6866C278.817 49.7248 278.687 49.786 278.572 49.8701C278.465 49.9543 278.377 50.0613 278.308 50.1914C278.239 50.3214 278.205 50.4705 278.205 50.6388V54.6426H276.955V51.0059C276.955 50.0805 276.591 49.6177 275.865 49.6177C275.712 49.6177 275.559 49.6407 275.406 49.6866C275.261 49.7248 275.131 49.786 275.016 49.8701C274.901 49.9543 274.809 50.0613 274.74 50.1914C274.672 50.3214 274.637 50.4705 274.637 50.6388V54.6426H273.387ZM287.874 54.6426C287.545 54.6426 287.293 54.5508 287.117 54.3672C286.941 54.176 286.834 53.9351 286.796 53.6445H286.739C286.624 54.0193 286.413 54.3022 286.108 54.4934C285.802 54.6846 285.431 54.7802 284.995 54.7802C284.375 54.7802 283.897 54.6196 283.561 54.2984C283.232 53.9772 283.067 53.5451 283.067 53.0021C283.067 52.4055 283.282 51.9581 283.71 51.6598C284.146 51.3615 284.781 51.2124 285.614 51.2124H286.693V50.7076C286.693 50.3405 286.593 50.0575 286.394 49.8587C286.195 49.6598 285.886 49.5604 285.465 49.5604C285.113 49.5604 284.826 49.6369 284.605 49.7898C284.383 49.9428 284.195 50.1378 284.043 50.3749L283.297 49.6981C283.496 49.3615 283.775 49.0862 284.134 48.8721C284.494 48.6503 284.964 48.5394 285.545 48.5394C286.318 48.5394 286.911 48.7191 287.324 49.0786C287.737 49.438 287.943 49.9543 287.943 50.6273V53.6216H288.574V54.6426H287.874ZM285.35 53.8281C285.74 53.8281 286.062 53.7439 286.314 53.5757C286.566 53.3998 286.693 53.1665 286.693 52.8759V52.0154H285.637C284.773 52.0154 284.341 52.2831 284.341 52.8185V53.025C284.341 53.2927 284.429 53.4954 284.605 53.633C284.788 53.763 285.037 53.8281 285.35 53.8281Z" fill="black"/>
<path d="M155.695 158L151.365 165.5L160.025 165.5L155.695 158ZM155.695 190.422C153.486 190.422 151.695 192.213 151.695 194.422C151.695 196.631 153.486 198.422 155.695 198.422C157.904 198.422 159.695 196.631 159.695 194.422C159.695 192.213 157.904 190.422 155.695 190.422ZM155.695 164.75L154.945 164.75L154.945 194.422L155.695 194.422L156.445 194.422L156.445 164.75L155.695 164.75Z" fill="#009FEE"/>
<path d="M156.711 91.5313C156.711 93.7404 158.502 95.5313 160.711 95.5313C162.92 95.5313 164.711 93.7404 164.711 91.5313C164.711 89.3221 162.92 87.5313 160.711 87.5313C158.502 87.5313 156.711 89.3221 156.711 91.5313ZM200.128 91.5313L192.628 87.2011L192.628 95.8614L200.128 91.5313ZM160.711 91.5313L160.711 92.2813L193.378 92.2813L193.378 91.5313L193.378 90.7813L160.711 90.7813L160.711 91.5313Z" fill="#009FEE"/>
<defs>
<filter id="filter0_d_1118_3019" x="19.2184" y="16.7184" width="138.157" height="148.909" filterUnits="userSpaceOnUse" color-interpolation-filters="sRGB">
<feFlood flood-opacity="0" result="BackgroundImageFix"/>
<feColorMatrix in="SourceAlpha" type="matrix" values="0 0 0 0 0 0 0 0 0 0 0 0 0 0 0 0 0 0 127 0" result="hardAlpha"/>
<feOffset/>
<feGaussianBlur stdDeviation="5.14081"/>
<feComposite in2="hardAlpha" operator="out"/>
<feColorMatrix type="matrix" values="0 0 0 0 0 0 0 0 0 0 0 0 0 0 0 0 0 0 0.08 0"/>
<feBlend mode="normal" in2="BackgroundImageFix" result="effect1_dropShadow_1118_3019"/>
<feBlend mode="normal" in="SourceGraphic" in2="effect1_dropShadow_1118_3019" result="shape"/>
</filter>
<filter id="filter1_d_1118_3019" x="198.718" y="19.7184" width="137.563" height="145.563" filterUnits="userSpaceOnUse" color-interpolation-filters="sRGB">
<feFlood flood-opacity="0" result="BackgroundImageFix"/>
<feColorMatrix in="SourceAlpha" type="matrix" values="0 0 0 0 0 0 0 0 0 0 0 0 0 0 0 0 0 0 127 0" result="hardAlpha"/>
<feOffset/>
<feGaussianBlur stdDeviation="5.14081"/>
<feComposite in2="hardAlpha" operator="out"/>
<feColorMatrix type="matrix" values="0 0 0 0 0 0 0 0 0 0 0 0 0 0 0 0 0 0 0.08 0"/>
<feBlend mode="normal" in2="BackgroundImageFix" result="effect1_dropShadow_1118_3019"/>
<feBlend mode="normal" in="SourceGraphic" in2="effect1_dropShadow_1118_3019" result="shape"/>
</filter>
</defs>
</svg>

<svg xmlns="http://www.w3.org/2000/svg" width="354" height="217" fill="none" viewBox="0 0 354 217"><path fill="#f3f3f3" d="M0 24C0 10.745 10.745 0 24 0h306c13.255 0 24 10.745 24 24v169c0 13.255-10.745 24-24 24H24c-13.255 0-24-10.745-24-24z"/><g filter="url(#a)"><rect width="117.59" height="128.345" x="29.5" y="27" fill="#fff" rx="12"/><rect width="116.733" height="127.489" x="29.928" y="27.428" stroke="#fff" stroke-width=".857" rx="11.572"/></g><g filter="url(#b)"><rect width="117" height="125" x="209" y="30" fill="#fff" rx="12"/><rect width="116.143" height="124.143" x="209.428" y="30.428" stroke="#fff" stroke-width=".857" rx="11.572"/></g><rect width="100.382" height="20.076" x="38.102" y="65.002" fill="#f7f7f7" rx="2.868"/><rect width="100.382" height="20.076" x="217.359" y="68.172" fill="#f7f7f7" rx="2.868"/><rect width="100.382" height="20.076" x="38.102" y="87.945" fill="#f7f7f7" rx="2.868"/><rect width="100.382" height="20.076" x="217.359" y="96.248" fill="#f7f7f7" rx="2.868"/><rect width="101" height="25" x="38" y="116" fill="#e5f6ff" rx="5.736"/><rect width="95" height="19" x="41" y="119" fill="#fff" rx="2.868"/><rect width="100.382" height="20.076" x="217.359" y="124.324" fill="#e5f6ff" rx="2.868"/><rect width="100.382" height="20.076" x="38.102" y="169" fill="#e5f6ff" rx="2.868"/><path fill="#000" d="M70.884 51.61q-1.01 0-1.72-.367a3.8 3.8 0 0 1-1.205-.986l.895-.838q.425.516.929.78.516.264 1.17.264.77 0 1.159-.344.39-.345.39-.93 0-.47-.275-.745-.276-.275-.976-.413l-.71-.126q-1.171-.218-1.756-.769-.585-.55-.585-1.514 0-.529.195-.952a2 2 0 0 1 .562-.723q.368-.298.883-.459.516-.16 1.159-.16.906 0 1.572.32.665.311 1.136.907l-.907.803a2.4 2.4 0 0 0-.757-.642q-.448-.241-1.113-.241-.688 0-1.067.275-.378.276-.378.803 0 .505.31.757.309.24.963.367l.711.15q1.205.228 1.756.78.561.55.562 1.514 0 .562-.195 1.02-.195.46-.574.793a2.7 2.7 0 0 1-.906.504 4 4 0 0 1-1.228.172m6.673 0q-.642 0-1.147-.218a2.3 2.3 0 0 1-.849-.62 2.9 2.9 0 0 1-.528-.986 4.3 4.3 0 0 1-.183-1.296q0-.712.183-1.285.185-.585.528-.987.344-.413.849-.63a2.9 2.9 0 0 1 1.147-.219q.895 0 1.469.402.573.401.837 1.067l-1.032.482a1.25 1.25 0 0 0-.448-.654q-.31-.252-.826-.253-.689 0-1.044.436-.344.425-.344 1.113v1.067q0 .689.344 1.124.355.425 1.044.425.55 0 .872-.264.333-.276.528-.723l.952.505q-.298.734-.895 1.124-.596.39-1.457.39m3.542-8.627h1.25v3.51h.058q.195-.48.585-.802.402-.322 1.09-.322.918 0 1.423.608.516.597.516 1.71v3.786h-1.25v-3.637q0-1.388-1.125-1.388-.24 0-.482.069-.229.058-.413.183a1 1 0 0 0-.298.321.94.94 0 0 0-.103.448v4.004H81.1zm8.995 8.627q-.642 0-1.147-.218a2.4 2.4 0 0 1-.86-.62 3 3 0 0 1-.55-.986 4.3 4.3 0 0 1-.184-1.296q0-.712.183-1.285.195-.585.55-.987.357-.413.861-.63a2.9 2.9 0 0 1 1.147-.219q.655 0 1.148.23.504.23.837.642.333.402.494.941.171.54.172 1.159v.47h-4.096v.195q0 .689.402 1.136.413.436 1.17.436.55 0 .929-.241a2.1 2.1 0 0 0 .642-.654l.735.723a2.4 2.4 0 0 1-.964.883q-.63.321-1.469.321m0-5.265q-.32 0-.596.114a1.4 1.4 0 0 0-.459.322 1.5 1.5 0 0 0-.287.493 1.9 1.9 0 0 0-.103.63v.081h2.776v-.115q0-.688-.355-1.101-.355-.424-.975-.424m4.035 5.128v-5.966h1.25v.987h.058q.091-.23.218-.436.138-.207.32-.356.196-.16.448-.24.264-.093.608-.093.609 0 1.079.299.47.298.688.918h.034q.162-.506.62-.86.459-.357 1.182-.357.894 0 1.388.608.493.597.493 1.71v3.786h-1.25v-3.637q0-.689-.264-1.032-.264-.356-.838-.356-.24 0-.459.069-.217.058-.39.183a1 1 0 0 0-.263.321.94.94 0 0 0-.104.448v4.004h-1.25v-3.637q0-1.388-1.09-1.388a1.6 1.6 0 0 0-.459.069q-.218.058-.39.183a.9.9 0 0 0-.275.321.94.94 0 0 0-.104.448v4.004zm14.487 0q-.492 0-.757-.276a1.3 1.3 0 0 1-.321-.722h-.057a1.47 1.47 0 0 1-.631.849q-.459.286-1.113.286-.93 0-1.434-.481-.493-.483-.493-1.297 0-.894.642-1.342.654-.448 1.904-.448h1.079v-.504q0-.55-.298-.85-.298-.297-.93-.297-.528 0-.86.229a2.1 2.1 0 0 0-.562.585l-.746-.677q.299-.505.837-.826.54-.333 1.412-.333 1.158 0 1.778.54t.619 1.548v2.995h.631v1.02zm-2.523-.815q.585 0 .963-.252.38-.264.379-.7v-.86h-1.056q-1.296 0-1.296.803v.206q0 .402.264.608.275.195.746.195M250.142 54.78q-1.01 0-1.721-.367a3.8 3.8 0 0 1-1.204-.986l.895-.838q.424.516.929.78.516.264 1.17.264.769 0 1.159-.344.39-.345.39-.93 0-.47-.276-.745-.275-.275-.975-.413l-.711-.126q-1.17-.219-1.755-.769t-.585-1.514q0-.528.195-.953.206-.435.562-.722.367-.299.883-.46.517-.16 1.159-.16.906 0 1.572.322.665.309 1.135.906l-.906.803a2.4 2.4 0 0 0-.757-.643q-.447-.24-1.113-.24-.689 0-1.067.275t-.378.803q0 .505.309.757.31.24.964.367l.711.15q1.205.228 1.755.78.563.55.563 1.514 0 .563-.195 1.02a2.2 2.2 0 0 1-.574.792 2.7 2.7 0 0 1-.906.505 4 4 0 0 1-1.228.172m6.673 0q-.642 0-1.147-.218a2.3 2.3 0 0 1-.849-.62 2.9 2.9 0 0 1-.528-.986 4.3 4.3 0 0 1-.183-1.296q0-.711.183-1.285.183-.585.528-.987.344-.412.849-.63a2.9 2.9 0 0 1 1.147-.219q.895 0 1.468.402.574.401.838 1.067l-1.033.482a1.25 1.25 0 0 0-.447-.654q-.31-.253-.826-.253-.689 0-1.044.436-.344.425-.344 1.113V52.2q0 .689.344 1.124.355.425 1.044.425.55 0 .872-.264.333-.276.528-.723l.952.505q-.298.734-.895 1.124-.596.39-1.457.39m3.542-8.627h1.251v3.51h.057q.195-.48.585-.802.402-.322 1.09-.322.918 0 1.423.608.516.597.516 1.71v3.786h-1.251v-3.637q0-1.388-1.124-1.388-.241 0-.482.069-.229.057-.413.183a1 1 0 0 0-.298.321.94.94 0 0 0-.103.448v4.004h-1.251zm8.995 8.627a2.9 2.9 0 0 1-1.147-.218 2.4 2.4 0 0 1-.86-.62 3 3 0 0 1-.551-.986 4.3 4.3 0 0 1-.184-1.296q0-.711.184-1.285.195-.585.551-.987.356-.412.86-.63a2.9 2.9 0 0 1 1.147-.219q.654 0 1.148.23.504.23.837.642.333.401.493.941.172.54.172 1.159v.47h-4.095v.195q0 .688.401 1.136.414.435 1.171.436.55 0 .929-.241.378-.24.642-.654l.734.723a2.4 2.4 0 0 1-.963.883q-.631.321-1.469.321m0-5.266a1.5 1.5 0 0 0-.596.115 1.4 1.4 0 0 0-.459.321 1.5 1.5 0 0 0-.287.494 1.9 1.9 0 0 0-.103.63v.081h2.776v-.115q0-.689-.356-1.101-.356-.425-.975-.425m4.035 5.129v-5.966h1.25v.987h.058q.091-.23.218-.436.136-.207.321-.356.195-.16.447-.24a1.9 1.9 0 0 1 .608-.093q.608 0 1.079.299.47.297.688.917h.034q.16-.504.62-.86t1.181-.356q.895 0 1.389.608.493.597.493 1.71v3.786h-1.251v-3.637q0-.688-.263-1.033-.264-.355-.838-.355-.24 0-.459.069a1.2 1.2 0 0 0-.39.183 1 1 0 0 0-.264.321.94.94 0 0 0-.103.448v4.004h-1.25v-3.637q0-1.388-1.09-1.388a1.6 1.6 0 0 0-.459.069 1.2 1.2 0 0 0-.39.183.9.9 0 0 0-.276.321.95.95 0 0 0-.103.448v4.004zm14.487 0q-.493 0-.757-.276a1.3 1.3 0 0 1-.321-.722h-.057a1.47 1.47 0 0 1-.631.848q-.459.288-1.113.287-.93 0-1.434-.482-.494-.48-.494-1.296 0-.894.643-1.342.654-.447 1.904-.448h1.079v-.504q0-.55-.299-.85-.298-.297-.929-.298-.528 0-.86.23-.333.23-.562.585l-.746-.677q.298-.505.837-.826.54-.333 1.411-.333 1.16 0 1.779.54.62.539.619 1.548v2.995h.631v1.02zm-2.524-.815q.586 0 .964-.252.379-.264.379-.7v-.86h-1.056q-1.296 0-1.296.803v.206q0 .401.264.608.275.195.745.195"/><path fill="#009fee" d="m155.695 158-4.33 7.5h8.66zm0 32.422a4 4 0 1 0 0 8 4 4 0 0 0 0-8m0-25.672h-.75v29.672h1.5V164.75zM156.711 91.531a4 4 0 1 0 8 0 4 4 0 0 0-8 0m43.417 0-7.5-4.33v8.66zm-39.417 0v.75h32.667v-1.5h-32.667z"/><defs><filter id="a" width="138.157" height="148.909" x="19.218" y="16.718" color-interpolation-filters="sRGB" filterUnits="userSpaceOnUse"><feFlood flood-opacity="0" result="BackgroundImageFix"/><feColorMatrix in="SourceAlpha" result="hardAlpha" values="0 0 0 0 0 0 0 0 0 0 0 0 0 0 0 0 0 0 127 0"/><feOffset/><feGaussianBlur stdDeviation="5.141"/><feComposite in2="hardAlpha" operator="out"/><feColorMatrix values="0 0 0 0 0 0 0 0 0 0 0 0 0 0 0 0 0 0 0.08 0"/><feBlend in2="BackgroundImageFix" result="effect1_dropShadow_1118_3019"/><feBlend in="SourceGraphic" in2="effect1_dropShadow_1118_3019" result="shape"/></filter><filter id="b" width="137.563" height="145.563" x="198.718" y="19.718" color-interpolation-filters="sRGB" filterUnits="userSpaceOnUse"><feFlood flood-opacity="0" result="BackgroundImageFix"/><feColorMatrix in="SourceAlpha" result="hardAlpha" values="0 0 0 0 0 0 0 0 0 0 0 0 0 0 0 0 0 0 127 0"/><feOffset/><feGaussianBlur stdDeviation="5.141"/><feComposite in2="hardAlpha" operator="out"/><feColorMatrix values="0 0 0 0 0 0 0 0 0 0 0 0 0 0 0 0 0 0 0.08 0"/><feBlend in2="BackgroundImageFix" result="effect1_dropShadow_1118_3019"/><feBlend in="SourceGraphic" in2="effect1_dropShadow_1118_3019" result="shape"/></filter></defs></svg>
